X: 11886
T: Emma
R: waltz
M: 3/4
K: Aminor
|:e2- ef e2|c2 A2 A2|e2- ef e2|c2 A2 A2|B4 Bc|d2 c2 B2|A2- AB cd|e6|
e2- ef e2|c2 A2 A2|e2- ef e2|c2 A2 A2|B4 Bc|d2 c2 B2|A2- AB cB|A6:|
|:a2- aa a2|a2 g2 f2|e2- ef e2|e2 d2 c2|B4 Bc|d2 c2 B2|A2- AB cd|e6|
a2- aa a2|a2 g2 f2|e2- ef e2|e2 d2 c2|B4 Bc|d2 c2 B2|A2- AB cB|A6:|

